X: 40686
T: Toria's 50th
R: reel
M: 4/4
K: Dmajor
|:"D" A z dA deed|Aeeg f2 ed|"Bm" ~B2 dB deed|(3Bcd ed efed|
"G" Gdef BG (3Bcd|ga f2 edBA|GGdG GdGB|1 "A" deAA (3Bcd ed:|2 "A" deAA (3Bcd eg||
|:"D" a2gf gag(f|f)ddf feed|"G" Gdef BG (3Bcd|f2 e2 dc2A|"Em" EGBd eGBd|
efdB dBBG|1 EGBd eGBd|"A"efdA cdeg:|2 EG (3Bcd e z3|"A"a3f ed (_B/A/)F||

